src/assets/svg/ic_ms.svg

<svg xmlns="http://www.w3.org/2000/svg" width="16" height="16">
    <path d="M6.071 6.469c.88.301 1.639.813 1.639.813l1.513-5.089C6.519.167 3.36 1.85 3.36 1.85L1.848 6.977s.536-.253 1.446-.481c1.096-.276 2.344-.176 2.777-.027zm-1.386.73c-1.408-.097-3.104.675-3.104.675L.078 12.999c.696-.353 1.742-.53 2.948-.632 1.206-.098 2.905.984 2.905.984L7.459 8.21c-.242-.17-1.367-.913-2.774-1.011zm6.233 2.511C9.863 9.734 8.25 8.707 8.25 8.707l-1.506 5.098c.276.105 1.182.949 2.689 1.024 1.51.075 3.174-.688 3.174-.688s1.481-5.078 1.512-5.095a.152.152 0 01-.03.017c-1.411.542-2.13.623-3.171.647z"/>
    <path d="M12.578 3.727a5.23 5.23 0 01-2.557-.998l-1.516 5.06s1.231 1.182 2.966 1.083c1.735-.099 2.678-.634 2.907-.71l1.505-5.104c0 .001-1.998.817-3.305.669z"/>
</svg>

<?xml version="1.0" encoding="utf-8"?>
<!-- Generator: Adobe Illustrator 16.0.4, SVG Export Plug-In . SVG Version: 6.00 Build 0)  -->
<!DOCTYPE svg PUBLIC "-//W3C//DTD SVG 1.1//EN" "http://www.w3.org/Graphics/SVG/1.1/DTD/svg11.dtd">
<svg version="1.1" id="artwork" xmlns="http://www.w3.org/2000/svg" xmlns:xlink="http://www.w3.org/1999/xlink" x="0px" y="0px"
	 width="16px" height="16px" viewBox="0 0 16 16" enable-background="new 0 0 16 16" xml:space="preserve">
<g>
	<path d="M6.071,6.469C6.951,6.77,7.71,7.282,7.71,7.282l1.513-5.089C6.519,0.167,3.36,1.85,3.36,1.85L1.848,6.977
		c0,0,0.536-0.253,1.446-0.481C4.39,6.22,5.638,6.32,6.071,6.469z"/>
	<path d="M4.685,7.199C3.277,7.102,1.581,7.874,1.581,7.874l-1.503,5.125c0.696-0.353,1.742-0.53,2.948-0.632
		c1.206-0.098,2.905,0.984,2.905,0.984L7.459,8.21C7.217,8.04,6.092,7.297,4.685,7.199z"/>
	<path d="M10.918,9.71C9.863,9.734,8.25,8.707,8.25,8.707l-1.506,5.098c0.276,0.105,1.182,0.949,2.689,1.024
		c1.51,0.075,3.174-0.688,3.174-0.688s1.481-5.078,1.512-5.095c0.01-0.005-0.02,0.013-0.03,0.017
		C12.678,9.605,11.959,9.686,10.918,9.71z"/>
	<path d="M12.578,3.727c-1.307-0.146-2.121-0.689-2.557-0.998L8.505,7.789c0,0,1.231,1.182,2.966,1.083
		c1.735-0.099,2.678-0.634,2.907-0.71l1.505-5.104C15.883,3.059,13.885,3.875,12.578,3.727z"/>
</g>
</svg>
